modules/hawcons-filled/icons/icon-18-smiling-face-eyebrows.svg

<?xml version="1.0" encoding="UTF-8" standalone="no"?>
<svg width="32px" height="32px" viewBox="0 0 32 32" version="1.1" xmlns="http://www.w3.org/2000/svg" xmlns:xlink="http://www.w3.org/1999/xlink" xmlns:sketch="http://www.bohemiancoding.com/sketch/ns">
    <!-- Generator: Sketch 3.0.3 (7891) - http://www.bohemiancoding.com/sketch -->
    <title>icon 18 smiling face eyebrows</title>
    <desc>Created with Sketch.</desc>
    <defs></defs>
    <g id="Page-1" stroke="none" stroke-width="1" fill="none" fill-rule="evenodd" sketch:type="MSPage">
        <g id="icon-18-smiling-face-eyebrows" sketch:type="MSArtboardGroup" fill="#929292">
            <path d="M16.5,29 C23.4035597,29 29,23.4035597 29,16.5 C29,9.59644029 23.4035597,4 16.5,4 C9.59644029,4 4,9.59644029 4,16.5 C4,23.4035597 9.59644029,29 16.5,29 Z M16.4813232,22 C13,22 11,20 11,20 L11,21 C11,21 13,23 16.4813232,23 C19.9626465,23 22,21 22,21 L22,20 C22,20 19.9626465,22 16.4813232,22 Z M20.6215213,9.96709541 L20.0623284,10.796133 L23.3784787,13.0329046 L23.9376716,12.203867 L20.6215213,9.96709541 Z M9.0623284,12.203867 L9.62152131,13.0329046 L12.9376716,10.796133 L12.3784787,9.96709541 L9.0623284,12.203867 Z M12,15 C12.5522848,15 13,14.5522848 13,14 C13,13.4477152 12.5522848,13 12,13 C11.4477152,13 11,13.4477152 11,14 C11,14.5522848 11.4477152,15 12,15 Z M21,15 C21.5522848,15 22,14.5522848 22,14 C22,13.4477152 21.5522848,13 21,13 C20.4477152,13 20,13.4477152 20,14 C20,14.5522848 20.4477152,15 21,15 Z" id="smiling-face-eyebrows" sketch:type="MSShapeGroup"></path>
        </g>
    </g>
</svg>

<svg width="32" height="32" xmlns="http://www.w3.org/2000/svg"><path d="M16.5 29C23.404 29 29 23.404 29 16.5S23.404 4 16.5 4 4 9.596 4 16.5 9.596 29 16.5 29zm-.019-7C13 22 11 20 11 20v1s2 2 5.481 2C19.963 23 22 21 22 21v-1s-2.037 2-5.519 2zm4.14-12.033l-.559.83 3.316 2.236.56-.83-3.316-2.236zM9.063 12.204l.56.829 3.316-2.237-.56-.829-3.316 2.237zM12 15a1 1 0 1 0 0-2 1 1 0 0 0 0 2zm9 0a1 1 0 1 0 0-2 1 1 0 0 0 0 2z" fill="#929292" fill-rule="evenodd"/></svg>
